svg/lotion_plus.svg

<svg xmlns="http://www.w3.org/2000/svg" viewBox="0 0 24 24"><path d="M15.5 6.5C15.5 5.66 17 4 17 4s1.5 1.66 1.5 2.5c0 .83-.67 1.5-1.5 1.5s-1.5-.67-1.5-1.5m4 8.5a2.5 2.5 0 0 0 2.5-2.5c0-1.67-2.5-4.5-2.5-4.5S17 10.83 17 12.5a2.5 2.5 0 0 0 2.5 2.5M13 14h-2v-2H9v2H7v2h2v2h2v-2h2zm3-2v10H4V12c0-2.97 2.16-5.43 5-5.91V4H7V2h6c1.13 0 2.15.39 3 1l-1.44 1.44C14.1 4.17 13.57 4 13 4h-2v2.09c2.84.48 5 2.94 5 5.91"/></svg>

<?xml version="1.0" encoding="UTF-8"?><!DOCTYPE svg PUBLIC "-//W3C//DTD SVG 1.1//EN" "http://www.w3.org/Graphics/SVG/1.1/DTD/svg11.dtd"><svg xmlns="http://www.w3.org/2000/svg" xmlns:xlink="http://www.w3.org/1999/xlink" version="1.1" id="mdi-lotion-plus" width="24" height="24" viewBox="0 0 24 24"><path d="M15.5 6.5C15.5 5.66 17 4 17 4S18.5 5.66 18.5 6.5C18.5 7.33 17.83 8 17 8S15.5 7.33 15.5 6.5M19.5 15C20.88 15 22 13.88 22 12.5C22 10.83 19.5 8 19.5 8S17 10.83 17 12.5C17 13.88 18.12 15 19.5 15M13 14H11V12H9V14H7V16H9V18H11V16H13V14M16 12V22H4V12C4 9.03 6.16 6.57 9 6.09V4H7V2H13C14.13 2 15.15 2.39 16 3L14.56 4.44C14.1 4.17 13.57 4 13 4H11V6.09C13.84 6.57 16 9.03 16 12Z" /></svg>
